X: 36070
T: Scartaglen, The
R: polka
M: 2/4
K: Aminor
|:G2 ED|GB d2|ed BG|A/B/A/G/ ED|
G2 ED|GB d2|ed BA|1 GA BA:|2 GA Bc||
|:d2 dB/d/|ed Bd|c2 cd|ed Bc|
d2 dB/d/|ed BG|AB/c/ BA|1 GA Bc:|2 GA BA||

